X:1
T:Celeste, 88.88
T:Celeste, 88.88
T:Lancashire Sunday School Songs, 1857
T:Public Domain Courtesy of the Cyber Hymnal™
C:Lancashire Sunday School Songs, 1857
Z:Public Domain
Z:Courtesy of the Cyber Hymnal™
%%score ( 1 2 ) ( 3 4 )
L:1/8
M:8/4
K:A
V:1 treble 
V:2 treble 
V:3 bass 
V:4 bass 
V:1
 E4 | [EA]4 [DA]2 [DA]2 (A2 B2) [Ec]2 [EB]2 | [EA]12 (G2 A2) | %3
 [EB]4 [EB]2 [FB]2 (B2 c2) [Gd]2 [EB]2 | [Ec]12 (A2 c2) | [Ee]4 [Ee]2 [Ge]2 [Ae]4 [Gd]2 [Ac]2 | %6
 [GB]12 E4 | [DF]4 [Fd]2 [Ed]2 [Ec]2 [FB]2 [EA]2 [DG]2 | [CA]12 |] %9
V:2
 E4 | x8 E4 x4 | x12 E4 | x8 G4 x4 | x12 E4 | x16 | x12 E4 | x16 | x12 |] %9
V:3
 [A,C]4 | [A,C]4 [F,A,]2 [F,A,]2 (C2 D2) [E,E]2 [E,D]2 | [A,,C]12 (B,2 A,2) | %3
 [E,G,]4 [G,B,]2 [F,A,]2 (G,2 A,2) [E,B,]2 [E,G,]2 | [A,,A,]12 [A,C]4 | %5
 [G,B,]4 [E,G,]2 [D,B,]2 [C,A,]4 [B,,B,]2 [A,,E]2 | [E,E]12 [C,A,]4 | %7
 [D,A,]4 [B,,B,]2 [B,,G,]2 [C,A,]2 [D,D]2 [E,C]2 [E,B,]2 | [A,,A,]12 |] %9
V:4
 x4 | x8 E,4 x4 | x12 E,4 | x8 E,4 x4 | x16 | x16 | x16 | x16 | x12 |] %9

